X:19002
T:Xiraldilla (CT 192)
R:Xiraldilla
C:Tradicional
S:Música Tradicional Asturiana, (C) Tello & Tito. Asturies, 2001.
S:http://pagina.de/MusTradAst <telloytito@asturies.org>
N:Xiraldilla, transcrita en Cuideiru.
O:Cuideiru
A:Asturies
Z:Cancioneru de Torner 192
M:3/8
L:1/8
Q:3/8=88
W:¡Ai! ven, amor, ven amor,
W:¡Ai! ven, amor, y verás
W:que el castillo de los moros
W:es muy malo de ganar.
W:
W:es muy malo de ganar,
W:es muy malo de vencer.
W:¡Ai! ven, amor, y verás
W:que lo gana una mujer.
K:G
|dBd|cAB|G3|BBB|BBc|d3|dBd|cAB|GFG|A2 B|cAF|G2 z :||


